img/content/pdf.svg

<svg width="48" height="55" viewBox="0 0 48 55" fill="none" xmlns="http://www.w3.org/2000/svg">
<path d="M44.8861 19.3155H43.5891V13.0581C43.588 13.0184 43.5842 12.9787 43.5776 12.9395C43.5797 12.6878 43.4907 12.4439 43.327 12.2527L32.9146 0.361555L32.9069 0.353904C32.7747 0.210413 32.6061 0.10532 32.4191 0.0497379L32.3617 0.0306075C32.2822 0.0107908 32.2007 0.000516144 32.1187 0H6.52861C5.35977 0 4.41092 0.950758 4.41092 2.11769V19.3155H3.11391C1.44196 19.3155 0.0875549 20.6699 0.0875549 22.3419V38.082C0.0875549 39.752 1.44387 41.1084 3.11391 41.1084H4.41092V51.8843C4.41092 53.0512 5.35977 54.002 6.52861 54.002H41.4714C42.6383 54.002 43.5891 53.0512 43.5891 51.8843V41.1084H44.8861C46.558 41.1084 47.9124 39.752 47.9124 38.082V22.3419C47.9124 20.6699 46.5561 19.3155 44.8861 19.3155ZM6.52861 2.11769H31.059V12.9529C31.059 13.5383 31.5334 14.0108 32.1187 14.0108H41.4733V19.3155H6.52861V2.11769ZM32.5262 30.2961C32.5262 33.3225 31.4243 35.4115 29.8958 36.7008C28.2315 38.0839 25.6987 38.742 22.6016 38.742C20.7479 38.742 19.4356 38.6234 18.5422 38.5086V22.977C19.8564 22.7666 21.5686 22.6499 23.3764 22.6499C26.3778 22.6499 28.3253 23.1893 29.8499 24.339C31.4932 25.5576 32.5262 27.505 32.5262 30.2961ZM4.91022 38.5794V22.977C6.0121 22.7895 7.56163 22.6499 9.74244 22.6499C11.9481 22.6499 13.5206 23.0726 14.5747 23.9163C15.5828 24.714 16.2619 26.0282 16.2619 27.5758C16.2619 29.1254 15.7473 30.4377 14.8081 31.3291C13.5876 32.4788 11.7817 32.9953 9.66975 32.9953C9.20106 32.9953 8.77829 32.9724 8.45117 32.9246V38.5794H4.91022ZM41.4714 51.3104H6.52861V41.1084H41.4714V51.3104ZM44.5398 25.6992H38.4622V29.3128H44.14V32.2225H38.4622V38.5794H34.8754V22.7666H44.5398V25.6992Z" fill="#ED4C5C"/>
</svg>

<svg width="48" height="55" viewBox="0 0 48 55" xmlns="http://www.w3.org/2000/svg" fill="none"><path d="M44.886 19.316h-1.297v-6.257l-.012-.119c.002-.252-.087-.496-.251-.687l-10.412-11.891-.008-.008c-.132-.143-.301-.249-.488-.304l-.057-.019-.243-.031h-25.59c-1.169 0-2.118.951-2.118 2.118v17.198h-1.297c-1.672 0-3.026 1.354-3.026 3.026v15.74c0 1.67 1.356 3.026 3.026 3.026h1.297v10.776c0 1.167.949 2.118 2.118 2.118h34.943c1.167 0 2.118-.951 2.118-2.118v-10.776h1.297c1.672 0 3.026-1.356 3.026-3.026v-15.74c0-1.672-1.356-3.026-3.026-3.026zm-38.357-17.198h24.53v10.835c0 .585.474 1.058 1.06 1.058h9.355v5.305h-34.945v-17.198zm25.998 28.178c0 3.026-1.102 5.115-2.63 6.405-1.664 1.383-4.197 2.041-7.294 2.041-1.854 0-3.166-.119-4.059-.233v-15.532c1.314-.21 3.026-.327 4.834-.327 3.001 0 4.949.539 6.474 1.689 1.643 1.219 2.676 3.166 2.676 5.957zm-27.616 8.283v-15.602c1.102-.188 2.651-.327 4.832-.327 2.206 0 3.778.423 4.832 1.266 1.008.798 1.687 2.112 1.687 3.66 0 1.55-.515 2.862-1.454 3.753-1.22 1.15-3.026 1.666-5.138 1.666-.469 0-.891-.023-1.219-.071v5.655h-3.541zm36.561 12.731h-34.943v-10.202h34.943v10.202zm3.068-25.611h-6.078v3.614h5.678v2.91h-5.678v6.357h-3.587v-15.813h9.664v2.933z" fill="#ED4C5C"/></svg>
